src/shared/assets/image/llS.svg

<svg width="50" height="34" viewBox="0 0 50 34" fill="none" xmlns="http://www.w3.org/2000/svg">
<path d="M6.9218 33.405C4.7618 33.405 3.1118 32.745 1.9718 31.425C0.831797 30.105 0.261797 28.215 0.261797 25.755V2.805C0.261797 2.205 0.411797 1.755 0.711797 1.455C1.0118 1.125 1.4618 0.959999 2.0618 0.959999C2.6318 0.959999 3.0818 1.125 3.4118 1.455C3.7418 1.755 3.9068 2.205 3.9068 2.805V25.485C3.9068 27.105 4.2218 28.32 4.8518 29.13C5.5118 29.91 6.4718 30.3 7.7318 30.3C8.0018 30.3 8.2418 30.285 8.4518 30.255C8.6618 30.225 8.8718 30.21 9.0818 30.21C9.4118 30.18 9.6368 30.255 9.7568 30.435C9.9068 30.615 9.9818 30.975 9.9818 31.515C9.9818 32.055 9.8618 32.46 9.6218 32.73C9.3818 33 8.9918 33.18 8.4518 33.27C8.2118 33.3 7.9568 33.33 7.6868 33.36C7.4168 33.39 7.1618 33.405 6.9218 33.405ZM20.2372 33.405C18.0772 33.405 16.4272 32.745 15.2872 31.425C14.1472 30.105 13.5772 28.215 13.5772 25.755V2.805C13.5772 2.205 13.7272 1.755 14.0272 1.455C14.3272 1.125 14.7772 0.959999 15.3772 0.959999C15.9472 0.959999 16.3972 1.125 16.7272 1.455C17.0572 1.755 17.2222 2.205 17.2222 2.805V25.485C17.2222 27.105 17.5372 28.32 18.1672 29.13C18.8272 29.91 19.7872 30.3 21.0472 30.3C21.3172 30.3 21.5572 30.285 21.7672 30.255C21.9772 30.225 22.1872 30.21 22.3972 30.21C22.7272 30.18 22.9522 30.255 23.0722 30.435C23.2222 30.615 23.2972 30.975 23.2972 31.515C23.2972 32.055 23.1772 32.46 22.9372 32.73C22.6972 33 22.3072 33.18 21.7672 33.27C21.5272 33.3 21.2722 33.33 21.0022 33.36C20.7322 33.39 20.4772 33.405 20.2372 33.405Z" fill="#1971C2"/>
<path d="M37.6477 33.405C36.2377 33.405 34.8577 33.285 33.5077 33.045C32.1577 32.805 30.8977 32.46 29.7277 32.01C28.5877 31.56 27.5527 30.99 26.6227 30.3C26.2627 30.03 26.0077 29.73 25.8577 29.4C25.7377 29.04 25.7077 28.695 25.7677 28.365C25.8577 28.005 26.0077 27.705 26.2177 27.465C26.4577 27.225 26.7427 27.09 27.0727 27.06C27.4027 27.03 27.7627 27.135 28.1527 27.375C29.5027 28.335 30.9427 29.04 32.4727 29.49C34.0027 29.91 35.7277 30.12 37.6477 30.12C40.3477 30.12 42.3427 29.625 43.6327 28.635C44.9527 27.615 45.6127 26.28 45.6127 24.63C45.6127 23.28 45.1327 22.23 44.1727 21.48C43.2427 20.7 41.6677 20.085 39.4477 19.635L34.7677 18.69C31.9477 18.09 29.8327 17.115 28.4227 15.765C27.0427 14.385 26.3527 12.555 26.3527 10.275C26.3527 8.865 26.6377 7.59 27.2077 6.45C27.7777 5.28 28.5727 4.29 29.5927 3.48C30.6127 2.64 31.8277 1.995 33.2377 1.545C34.6477 1.095 36.2077 0.869998 37.9177 0.869998C39.8077 0.869998 41.5627 1.14 43.1827 1.68C44.8327 2.19 46.3177 2.97 47.6377 4.02C47.9677 4.29 48.1927 4.605 48.3127 4.965C48.4327 5.295 48.4477 5.625 48.3577 5.955C48.2677 6.255 48.1027 6.51 47.8627 6.72C47.6527 6.93 47.3677 7.05 47.0077 7.08C46.6777 7.11 46.3027 6.99 45.8827 6.72C44.6827 5.82 43.4377 5.175 42.1477 4.785C40.8577 4.365 39.4327 4.155 37.8727 4.155C36.2827 4.155 34.9027 4.395 33.7327 4.875C32.5927 5.355 31.6927 6.06 31.0327 6.99C30.4027 7.89 30.0877 8.94 30.0877 10.14C30.0877 11.58 30.5227 12.72 31.3927 13.56C32.2927 14.4 33.7477 15.015 35.7577 15.405L40.4377 16.395C43.4677 17.025 45.7027 17.985 47.1427 19.275C48.6127 20.535 49.3477 22.26 49.3477 24.45C49.3477 25.77 49.0777 26.985 48.5377 28.095C47.9977 29.205 47.2177 30.165 46.1977 30.975C45.1777 31.755 43.9477 32.355 42.5077 32.775C41.0677 33.195 39.4477 33.405 37.6477 33.405Z" fill="#FD853A"/>
</svg>

<svg width="50" height="34" fill="none" xmlns="http://www.w3.org/2000/svg"><path d="M6.92 33.4c-2.16 0-3.8-.66-4.95-1.97C.83 30.1.27 28.21.27 25.75V2.8c0-.6.14-1.04.44-1.34.3-.33.75-.5 1.35-.5.57 0 1.02.17 1.35.5.33.3.5.75.5 1.35v22.68c0 1.62.31 2.83.94 3.64.66.78 1.62 1.17 2.88 1.17.27 0 .51-.02.72-.05.21-.02.42-.04.63-.04.33-.03.56.04.68.22.15.18.22.55.22 1.09s-.12.94-.36 1.21-.63.45-1.17.54l-.76.09c-.27.03-.53.05-.77.05Zm13.32 0c-2.16 0-3.81-.66-4.95-1.97-1.14-1.32-1.71-3.21-1.71-5.68V2.8c0-.6.15-1.04.45-1.34.3-.33.75-.5 1.35-.5.57 0 1.02.17 1.35.5.33.3.5.75.5 1.35v22.68c0 1.62.3 2.83.94 3.64.66.78 1.62 1.17 2.88 1.17.27 0 .5-.02.72-.05.2-.02.42-.04.63-.04.33-.03.55.04.67.22.15.18.23.55.23 1.09s-.12.94-.36 1.21-.63.45-1.17.54l-.77.09c-.27.03-.52.05-.76.05Z" fill="#1971C2"/><path d="M37.65 33.4a23.6 23.6 0 0 1-4.14-.35A20.5 20.5 0 0 1 29.73 32a13.5 13.5 0 0 1-3.1-1.71 2.37 2.37 0 0 1-.77-.9c-.12-.36-.15-.7-.1-1.04.1-.36.25-.66.46-.9.24-.23.52-.37.85-.4.33-.03.7.08 1.08.32 1.35.96 2.8 1.66 4.32 2.11 1.53.42 3.26.63 5.18.63 2.7 0 4.7-.5 5.98-1.48a4.82 4.82 0 0 0 1.98-4.01c0-1.35-.48-2.4-1.44-3.15-.93-.78-2.5-1.4-4.72-1.84l-4.68-.95c-2.82-.6-4.94-1.58-6.35-2.93a7.42 7.42 0 0 1-2.07-5.48 8.43 8.43 0 0 1 3.24-6.8 10.85 10.85 0 0 1 3.65-1.94c1.4-.45 2.97-.67 4.68-.67 1.89 0 3.64.27 5.26.81 1.65.51 3.14 1.29 4.46 2.34.33.27.55.59.67.95.12.33.14.66.05.99-.1.3-.26.55-.5.76-.2.21-.5.33-.85.36-.33.03-.7-.09-1.13-.36-1.2-.9-2.44-1.54-3.73-1.93a13.75 13.75 0 0 0-4.28-.63c-1.59 0-2.97.23-4.14.71A6.15 6.15 0 0 0 31.03 7c-.63.9-.94 1.95-.94 3.15 0 1.44.43 2.58 1.3 3.42.9.84 2.36 1.46 4.37 1.84l4.68 1c3.03.63 5.26 1.59 6.7 2.88a6.46 6.46 0 0 1 2.2 5.17 8.22 8.22 0 0 1-3.14 6.53 11.14 11.14 0 0 1-3.7 1.8c-1.43.41-3.05.63-4.85.63Z" fill="#FD853A"/></svg>
